icons/svg/24x24/pin/filled.svg

<svg width="24" height="24" fill="none" xmlns="http://www.w3.org/2000/svg">
  <path fill-rule="evenodd" clip-rule="evenodd" d="M22 21l-7.584-7.002 3.291-3.291a.999.999 0 000-1.414c-1.829-1.829-4.266-1.625-5.399-1.399L7.707 3.293A1.007 1.007 0 007 3a.99.99 0 00-.707.293l-4 4a.997.997 0 000 1.414l4.601 4.601c-.226 1.133-.429 3.571 1.399 5.399a.997.997 0 001.414 0l3.295-3.295L19 21h3z" fill="#000"/>
</svg>

<svg xmlns="http://www.w3.org/2000/svg" xmlns:xlink="http://www.w3.org/1999/xlink" width="24" height="24" viewBox="0 0 24 24">
  <defs>
    <path id="filled-a" d="M22,21 L14.416,13.998 L17.707,10.707 C18.098,10.316 18.098,9.684 17.707,9.293 C15.879,7.465 13.441,7.668 12.308,7.894 L7.707,3.293 C7.316,2.902 6.684,2.902 6.293,3.293 L2.293,7.293 C1.902,7.684 1.902,8.316 2.293,8.707 L6.894,13.308 C6.668,14.441 6.465,16.879 8.293,18.707 C8.488,18.902 8.744,19 9,19 C9.256,19 9.512,18.902 9.707,18.707 L13.002,15.412 L19,21 L22,21 Z"/>
  </defs>
  <use fill-rule="evenodd" xlink:href="#filled-a"/>
</svg>
